X:1
T:Title
%%score ( 1 2 ) { ( 3 5 ) | ( 4 6 ) }
L:1/8
Q:1/4=125
M:6/4
K:A
V:1 treble nm="Grand Piano, Soprano"
V:2 treble 
V:3 bass nm="Choir Pad, Bass"
V:5 bass 
V:4 bass 
V:6 bass 
V:1
 [CE]2 [Ec]3 [DB] [CA]2 [Ec]3 [DB] | [CA]2 [EB]4- [EB]4- [EB]3/2 z/ | %2
w: By~William~James~Kirkpatrick * * * * *||
 E2 [DB]3 [DB] [DB]2 [DB]2 [CA]2 | [B,G]2 [CA]4- [CA]4- [CA]3/2 z/ | %4
w: ||
 [CE]2 [Ec]3 [DB] [CA]2 [Ec]3 [DB] | [CA]2 [DB]3 [DA] [DF]2 [DB]4 | %6
w: ||
 (4:3:3[FA]2 .[DF]2 [CE]4 [CA]2 [B,G]2 [CA]2 | [DB]2 [CA]4- [CA]4- [CA]3/2 z/ | %8
w: ||
 E2 [EB]4- [EB]4- [EB]3/2 z/ | E2 [Ec]4- [Ec]4- [Ec]3/2 z/ | z2 [Fd]3 [Fd] [Fd]2 [Fd]2 [Fe]2 | %11
w: |||
 [Fd]2 [Ec]4- [Ec]4- [Ec]3/2 z/ | cd [Ee]3 [Ed] [Ec]2 [Ac]3 [EB] | [EA]2 [FB]3 [FA] [DF]2 [FB]4 | %14
w: |||
 [FA]>[DF] [CE]2 [CE]2 [EA]2 [EG]2 [EA]2 | [EB]2 [EA]4- [EA]6- | [EA]6 z6 |] %17
w: |||
V:2
 x12 | x12 | x12 | x12 | x12 | x12 | z2 .[CE]4 z6 | x12 | x12 | x12 | x12 | x12 | .E6 z6 | x12 | %14
 x12 | x12 | x12 |] %17
V:3
 A,2 A,3 A, A,2 A,3 A, | A,2 G,4- G,4- G,3/2 z/ | E,2 G,3 G, G,2 G,2 E,2 | E,2 E,4- E,4- E,3/2 z/ | %4
 A,2 A,3 A, A,2 A,3 A, | A,2 F,3 F, F,2 F,4 | z2 .A,4 z6 | E,2 E,4- E,4- E,3/2 z/ | %8
 E,2 G,4 G,2 G,4 | G,2 A,4 A,2 A,4 | z2 A,3 A, A,2 A,2 A,2 | A,2 A,4- A,4- A,3/2 z/ | %12
 A,B, C3 B, A,2[K:treble] E3 D | C2 D3 D[K:bass] A,2 D4 | A,>A, A,2 A,2[K:treble] C2 B,2 C2 | %15
 D2 C4- C6- | C6 z6 |] %17
V:4
 A,,2 A,,3 A,, A,,2 A,,3 A,, | A,,2 E,4- E,4- E,3/2 z/ | z2 E,3 E, E,2 .E,4 | %3
 z2 A,,4- A,,4- A,,3/2 z/ | .A,,6 z6 | z2 D,3 D, D,2 D,4 | z2 .E,4 z6 | z2 A,,4- A,,4- A,,3/2 z/ | %8
 z2 E,4 E,2 E,4 | E,2 A,,4 z6 | z2 D,3 D, D,2 D,2 D,2 | .D,6 z6 | z2 A,3 A, z2 A,3 A, | %13
 A,2 D,3 D, D,2 D,4 | D,>D, E,2 E,2 E,2 E,2 E,2 | E,2 [A,,A,]4- [A,,A,]6- | [A,,A,]6 z6 |] %17
V:5
 x12 | x12 | x12 | x12 | x12 | x12 | (4:3:3A,2 .A,2 A,4 A,2 E,2 E,2 | x12 | x12 | x12 | x12 | x12 | %12
 x8[K:treble] x4 | x6[K:bass] x6 | x6[K:treble] x6 | x12 | x12 |] %17
V:6
 x12 | x12 | x12 | x12 | x12 | x12 | (4:3:3D,2 .D,2 E,4 .E,6 | x12 | x12 | x12 | x12 | x12 | x12 | %13
 x12 | x12 | x12 | x12 |] %17

